static/uploads/coudcannon-logo.svg

<svg fill="none" height="28" viewBox="0 0 440 59" width="206" xmlns="http://www.w3.org/2000/svg"><g fill="#034ad8"><path d="m98.1654 30.7707c0-8.0512 6.6116-14.6683 14.9486-14.6683 8.049 0 11.787 5.7525 11.787 5.7525l-4.888 4.8902s-2.585-3.4492-6.899-3.4492c-4.023 0-7.19 3.161-7.19 7.4771s3.162 7.4771 7.19 7.4771c4.314 0 6.899-3.4492 6.899-3.4492l4.888 4.8879s-3.738 5.7548-11.787 5.7548c-8.337 0-14.9464-6.6194-14.9464-14.6706zm31.9136-26.17329h7.763v40.27209h-7.763zm13.796 26.17329c0-8.0512 6.61-14.6683 14.947-14.6683 8.339 0 14.949 6.6126 14.949 14.6706 0 8.0558-6.61 14.6706-14.947 14.6706-8.339 0-14.949-6.6194-14.949-14.6706zm22.137 0c0-4.3138-3.162-7.4771-7.19-7.4771-4.026 0-7.19 3.1633-7.19 7.4794s3.164 7.4771 7.19 7.4771c4.028 0 7.19-3.1633 7.19-7.4771zm13.515 2.8797v-16.9716h7.763v15.8188c0 3.4515 2.012 5.4643 5.171 5.4643 3.452 0 6.038-2.5869 6.038-6.3289v-14.9542h7.763v28.1884h-7.763v-4.0279h-.288s-2.876 4.602-8.34 4.602c-5.747 0-10.344-4.602-10.344-11.7932zm32.483-2.8797c0-8.6253 6.035-14.6683 12.651-14.6683 6.035 0 8.911 4.5997 8.911 4.5997h.29v-16.10469h7.764v40.27209h-7.764v-4.0279h-.29s-2.876 4.602-8.913 4.602c-6.614 0-12.649-6.0407-12.649-14.6706zm22.138 0c0-4.3138-3.162-7.4771-7.19-7.4771s-7.189 3.1633-7.189 7.4794 3.161 7.4771 7.189 7.4771 7.19-3.1633 7.19-7.4771zm13.509 0c0-8.0512 6.611-14.6683 14.948-14.6683 8.049 0 11.789 5.7525 11.789 5.7525l-4.887 4.8902s-2.588-3.4492-6.902-3.4492c-4.023 0-7.187 3.161-7.187 7.4771s3.159 7.4771 7.187 7.4771c4.314 0 6.902-3.4492 6.902-3.4492l4.887 4.8879s-3.74 5.7548-11.789 5.7548c-8.333 0-14.948-6.6194-14.948-14.6706zm30.187 6.6194c0-4.5998 3.159-8.1125 8.337-9.0316l8.912-1.6111c-.288-2.0151-2.012-3.7443-4.888-3.7443-4.024 0-6.326 3.1634-6.326 3.1634l-4.597-4.5998s4.024-5.4643 11.497-5.4643c7.189 0 12.077 4.8902 12.077 11.2191v17.548h-7.763v-3.4515h-.288s-2.876 4.0256-8.338 4.0256c-5.173 0-8.623-3.4515-8.623-8.0535zm17.249-4.6066v-.5718l-6.326 1.1482c-2.012.3449-3.159 1.4387-3.159 2.8774 0 1.7269 1.147 2.8774 3.449 2.8774 3.45 0 6.036-2.5869 6.036-6.3312zm15.239-16.1047h7.761v4.0279h.29s2.876-4.602 8.337-4.602c5.752 0 10.35 4.602 10.35 11.7932v16.9716h-7.764v-15.8234c0-3.4515-2.012-5.4643-5.176-5.4643-3.449 0-6.037 2.5869-6.037 6.3289v14.9542h-7.761zm34.208 0h7.764v4.0279h.29s2.874-4.602 8.338-4.602c5.749 0 10.349 4.602 10.349 11.7932v16.9716h-7.764v-15.8234c0-3.4515-2.012-5.4643-5.176-5.4643-3.452 0-6.037 2.5869-6.037 6.3289v14.9542h-7.764zm32.488 14.0919c0-8.0512 6.611-14.6683 14.949-14.6683 8.337 0 14.948 6.6126 14.948 14.6706 0 8.0558-6.611 14.6706-14.948 14.6706-8.338 0-14.949-6.6194-14.949-14.6706zm22.138 0c0-4.3138-3.161-7.4771-7.189-7.4771-4.029 0-7.19 3.1633-7.19 7.4794s3.161 7.4771 7.19 7.4771c4.028 0 7.189-3.1633 7.189-7.4771zm13.511-14.0919h7.761v4.0279h.29s2.876-4.602 8.338-4.602c5.752 0 10.349 4.602 10.349 11.7932v16.9716h-7.764v-15.8234c0-3.4515-2.011-5.4643-5.175-5.4643-3.45 0-6.038 2.5869-6.038 6.3289v14.9542h-7.761z"/><path clip-rule="evenodd" d="m33.5965 48.4299c.4082.2337.8482.4675 1.2882.674 3.2774 1.5204 4.7992 2.5188 4.7992 4.6247 0 2.2556-1.8439 4.1005-4.0983 4.1005-1.7555 0-3.2184-1.112-3.8035-2.6641-1.0859 1.1127-2.3834 1.9968-3.816 2.6001-1.4327.6033-2.9715.9136-4.5259.9127-1.5371 0-3.0591-.303-4.4791-.8916s-2.7103-1.4513-3.797-2.5388c-1.0868-1.0875-1.9488-2.3786-2.5368-3.7995s-.8905-2.9438-.8902-4.4816c0-.615.0862-1.23.1747-1.8449-6.00128-1.7564-10.62355-6.7623-11.678192-13.0299-.1451544-.9077-.233608-1.8154-.233608-2.7526s.0884536-1.8449.233608-2.7526c1.084122-6.2358 5.676912-11.2735 11.678192-13.0299l-.0114-.0772c-.0839-.5854-.1656-1.1505-.1656-1.7677-.0003-1.5381.3023-3.06111.8905-4.48215.5881-1.42104 1.4503-2.71222 2.5373-3.7998 1.087-1.08757 2.3775-1.95022 3.7978-2.538672s2.9426-.89117588 4.4798-.89087778c3.2501 0 6.2054 1.34791978 8.3419 3.51276978.2865-.77933.8045-1.45229 1.4844-1.92851s1.4891-.732897 2.3191-.735568c2.2544 0 4.0983 1.844888 4.0983 4.100498 0 2.28285-1.5218 3.27904-4.7992 4.80169-.3224.15367-.6401.31712-.9525.49012l-.3357.1816c-.2631.1475-.5262.295-.7621.4402-.2041.118-.3787.2337-.5556.3517-.0555.0299-.1086.064-.1588.1022-.0516.0383-.1062.0724-.1633.1021-.9934.6444-1.9006 1.4069-2.7806 2.1966-.0273.0155-.0518.0354-.0726.059-.0227.0227-.0454.0454-.0726.059-.3515.3494-.7031.7034-1.0251 1.0529l-.1316.1475c-.0431.0499-.0862.1021-.1315.1452-.1382.1715-.2788.3409-.4219.5083-.22.2587-.4354.5152-.6305.7807-2.8383 3.7626-4.3791 8.3454-4.3909 13.0594-.002 4.7162 1.5403 9.3033 4.3909 13.0594.3635.5029.759.982 1.1839 1.4342.0454.0499.0885.1021.1316.1452.2427.2859.4989.5378.7598.7942l.2653.261c.0273.0155.0518.0354.0726.059.0227.0227.0454.0431.0726.059.8674.8039 1.7972 1.5377 2.7806 2.1943.059.0295.1111.0681.161.1021.0509.039.1047.0739.1611.1044l.2789.1748.2767.1747.3811.2201c.1247.0726.2495.1475.381.2201zm40.6773-34.7555c6.0013 1.7564 10.6235 6.7623 11.6782 13.0299.31 1.8806.31 3.7993 0 5.6799-1.0842 6.2358-5.6769 11.2735-11.6782 13.0299l.0114.0772c.0839.5854.1655 1.1505.1655 1.7677.0003 1.5382-.3023 3.0615-.8906 4.4827s-1.4507 2.7124-2.5379 3.8c-1.0873 1.0876-2.3781 1.9502-3.7986 2.5386-1.4206.5883-2.9431.8908-4.4805.8902-1.5536-.0022-3.0911-.3139-4.523-.917-1.4318-.6031-2.7293-1.4855-3.8166-2.5958-.2865.7794-.8045 1.4523-1.4844 1.9285-.6799.4763-1.4892.7329-2.3191.7356-1.0856-.003-2.126-.4357-2.8939-1.2035-.7678-.7679-1.2009-1.8085-1.2044-2.8947 0-2.2851 1.5218-3.2813 4.7991-4.804.3244-.1498.6351-.3177.9526-.4901l.3357-.1816c.2631-.1475.5262-.295.762-.4402.2042-.118.3788-.2337.5557-.3517.0555-.0299.1086-.064.1588-.1022.0516-.0384.1062-.0725.1633-.1021.9834-.6575 1.9132-1.392 2.7806-2.1966.0273-.0154.0519-.0354.0726-.059.0226-.0227.0453-.0431.0725-.0567.3516-.3517.7031-.7035 1.0252-1.0552l.1315-.1452c.0431-.0522.0862-.1044.1316-.1475.1361-.1725.2812-.3404.4218-.5083.22-.2587.4355-.5129.6306-.7807 2.7216-3.6307 4.3909-8.1692 4.3909-13.0594.0014-4.7155-1.5408-9.3016-4.3909-13.0571-.3635-.5038-.7589-.9836-1.184-1.4365-.0453-.0499-.0884-.1021-.1315-.1452-.3192-.373-.6616-.7254-1.0252-1.0552-.0272-.0156-.0517-.0355-.0725-.059-.021-.0227-.0455-.0419-.0726-.0567-.8748-.7959-1.8039-1.5299-2.7806-2.1966-.0563-.0298-.1102-.0639-.1611-.1021-.0521-.0364-.102-.0727-.161-.1022-.0884-.059-.1814-.118-.279-.177-.0932-.0565-.1855-.1148-.2767-.1747l-.381-.2201c-.5395-.3273-1.0959-.6258-1.667-.89409-3.2501-1.54988-4.8014-2.54607-4.8014-4.80169 0-2.25334 1.8439-4.098228 4.0983-4.098228 1.7555 0 3.2184 1.111928 3.8035 2.664078 1.0859-1.11276 2.3834-1.99682 3.816-2.60011 1.4327-.60329 2.9715-.913604 4.5259-.91266 1.537 0 3.059.302944 4.4791.89153 1.42.58859 2.7102 1.45128 3.797 2.53883 1.0868 1.08754 1.9488 2.37862 2.5368 3.79951.588 1.4209.8905 2.94373.8902 4.48163 0 .6127-.0862 1.2299-.1747 1.8449z" fill-rule="evenodd"/><path d="m55.8664 29.4546c.0009-1.6767-.3286-3.3371-.9695-4.8863-.641-1.5492-1.5809-2.9568-2.766-4.1423-1.185-1.1855-2.5921-2.1256-4.1406-2.7667-1.5485-.641-3.2081-.9703-4.8839-.9691-1.6758-.0009-3.3354.3287-4.8838.97-1.5483.6413-2.9552 1.5817-4.1401 2.7674-1.1848 1.1857-2.1245 2.5935-2.7652 4.1428s-.9698 3.2098-.9686 4.8865c-.0009 1.6765.3285 3.3367.9693 4.8858.6408 1.549 1.5805 2.9565 2.7653 4.142 1.1849 1.1854 2.5916 2.1256 4.1399 2.7668 1.5482.6411 3.2076.9707 4.8832.9698 1.6758.0012 3.3354-.3281 4.8839-.9692 1.5485-.641 2.9556-1.5811 4.1406-2.7666 1.1851-1.1855 2.125-2.5931 2.766-4.1423.6409-1.5492.9704-3.2096.9695-4.8863z"/></g></svg>

<svg width="206" height="28" viewBox="0 0 440 59" fill="none" xmlns="http://www.w3.org/2000/svg">
<path d="M98.1654 30.7707C98.1654 22.7195 104.777 16.1024 113.114 16.1024C121.163 16.1024 124.901 21.8549 124.901 21.8549L120.013 26.7451C120.013 26.7451 117.428 23.2959 113.114 23.2959C109.091 23.2959 105.924 26.4569 105.924 30.773C105.924 35.0891 109.086 38.2501 113.114 38.2501C117.428 38.2501 120.013 34.8009 120.013 34.8009L124.901 39.6888C124.901 39.6888 121.163 45.4436 113.114 45.4436C104.777 45.4436 98.1676 38.8242 98.1676 30.773L98.1654 30.7707ZM130.079 4.59741H137.842V44.8695H130.079V4.59741ZM143.875 30.7707C143.875 22.7195 150.485 16.1024 158.822 16.1024C167.161 16.1024 173.771 22.715 173.771 30.773C173.771 38.8288 167.161 45.4436 158.824 45.4436C150.485 45.4436 143.875 38.8242 143.875 30.773V30.7707ZM166.012 30.7707C166.012 26.4569 162.85 23.2936 158.822 23.2936C154.796 23.2936 151.632 26.4569 151.632 30.773C151.632 35.0891 154.796 38.2501 158.822 38.2501C162.85 38.2501 166.012 35.0868 166.012 30.773V30.7707ZM179.527 33.6504V16.6788H187.29V32.4976C187.29 35.9491 189.302 37.9619 192.461 37.9619C195.913 37.9619 198.499 35.375 198.499 31.633V16.6788H206.262V44.8672H198.499V40.8393H198.211C198.211 40.8393 195.335 45.4413 189.871 45.4413C184.124 45.4413 179.527 40.8393 179.527 33.6481V33.6504ZM212.01 30.7707C212.01 22.1454 218.045 16.1024 224.661 16.1024C230.696 16.1024 233.572 20.7021 233.572 20.7021H233.862V4.59741H241.626V44.8695H233.862V40.8416H233.572C233.572 40.8416 230.696 45.4436 224.659 45.4436C218.045 45.4436 212.01 39.4029 212.01 30.773V30.7707ZM234.148 30.7707C234.148 26.4569 230.986 23.2936 226.958 23.2936C222.93 23.2936 219.769 26.4569 219.769 30.773C219.769 35.0891 222.93 38.2501 226.958 38.2501C230.986 38.2501 234.148 35.0868 234.148 30.773V30.7707ZM247.657 30.7707C247.657 22.7195 254.268 16.1024 262.605 16.1024C270.654 16.1024 274.394 21.8549 274.394 21.8549L269.507 26.7451C269.507 26.7451 266.919 23.2959 262.605 23.2959C258.582 23.2959 255.418 26.4569 255.418 30.773C255.418 35.0891 258.577 38.2501 262.605 38.2501C266.919 38.2501 269.507 34.8009 269.507 34.8009L274.394 39.6888C274.394 39.6888 270.654 45.4436 262.605 45.4436C254.272 45.4436 247.657 38.8242 247.657 30.773V30.7707ZM277.844 37.3901C277.844 32.7903 281.003 29.2776 286.181 28.3585L295.093 26.7474C294.805 24.7323 293.081 23.0031 290.205 23.0031C286.181 23.0031 283.879 26.1665 283.879 26.1665L279.282 21.5667C279.282 21.5667 283.306 16.1024 290.779 16.1024C297.968 16.1024 302.856 20.9926 302.856 27.3215V44.8695H295.093V41.418H294.805C294.805 41.418 291.929 45.4436 286.467 45.4436C281.294 45.4436 277.844 41.9921 277.844 37.3901ZM295.093 32.7835V32.2117L288.767 33.3599C286.755 33.7048 285.608 34.7986 285.608 36.2373C285.608 37.9642 286.755 39.1147 289.057 39.1147C292.507 39.1147 295.093 36.5278 295.093 32.7835ZM310.332 16.6788H318.093V20.7067H318.383C318.383 20.7067 321.259 16.1047 326.72 16.1047C332.472 16.1047 337.07 20.7067 337.07 27.8979V44.8695H329.306V29.0461C329.306 25.5946 327.294 23.5818 324.13 23.5818C320.681 23.5818 318.093 26.1687 318.093 29.9107V44.8649H310.332V16.6788ZM344.54 16.6788H352.304V20.7067H352.594C352.594 20.7067 355.468 16.1047 360.932 16.1047C366.681 16.1047 371.281 20.7067 371.281 27.8979V44.8695H363.517V29.0461C363.517 25.5946 361.505 23.5818 358.341 23.5818C354.889 23.5818 352.304 26.1687 352.304 29.9107V44.8649H344.54V16.6788ZM377.028 30.7707C377.028 22.7195 383.639 16.1024 391.977 16.1024C400.314 16.1024 406.925 22.715 406.925 30.773C406.925 38.8288 400.314 45.4436 391.977 45.4436C383.639 45.4436 377.028 38.8242 377.028 30.773V30.7707ZM399.166 30.7707C399.166 26.4569 396.005 23.2936 391.977 23.2936C387.948 23.2936 384.787 26.4569 384.787 30.773C384.787 35.0891 387.948 38.2501 391.977 38.2501C396.005 38.2501 399.166 35.0868 399.166 30.773V30.7707ZM412.677 16.6788H420.438V20.7067H420.728C420.728 20.7067 423.604 16.1047 429.066 16.1047C434.818 16.1047 439.415 20.7067 439.415 27.8979V44.8695H431.651V29.0461C431.651 25.5946 429.64 23.5818 426.476 23.5818C423.026 23.5818 420.438 26.1687 420.438 29.9107V44.8649H412.677V16.6788Z" fill="#034AD8"/>
<path fill-rule="evenodd" clip-rule="evenodd" d="M33.5965 48.4299C34.0047 48.6636 34.4447 48.8974 34.8847 49.1039C38.1621 50.6243 39.6839 51.6227 39.6839 53.7286C39.6839 55.9842 37.84 57.8291 35.5856 57.8291C33.8301 57.8291 32.3672 56.7171 31.7821 55.165C30.6962 56.2777 29.3987 57.1618 27.9661 57.7651C26.5334 58.3684 24.9946 58.6787 23.4402 58.6778C21.9031 58.6778 20.3811 58.3748 18.9611 57.7862C17.5411 57.1976 16.2508 56.3349 15.1641 55.2474C14.0773 54.1599 13.2153 52.8688 12.6273 51.4479C12.0393 50.027 11.7368 48.5041 11.7371 46.9663C11.7371 46.3513 11.8233 45.7363 11.9118 45.1214C5.91052 43.365 1.28825 38.3591 0.233608 32.0915C0.0884536 31.1838 0 30.2761 0 29.3389C0 28.4017 0.0884536 27.494 0.233608 26.5863C1.31773 20.3505 5.91052 15.3128 11.9118 13.5564L11.9004 13.4792C11.8165 12.8938 11.7348 12.3287 11.7348 11.7115C11.7345 10.1734 12.0371 8.65039 12.6253 7.22935C13.2134 5.80831 14.0756 4.51713 15.1626 3.42955C16.2496 2.34198 17.5401 1.47933 18.9604 0.890878C20.3807 0.302426 21.903 -0.000297883 23.4402 2.1995e-07C26.6903 2.1995e-07 29.6456 1.34792 31.7821 3.51277C32.0686 2.73344 32.5866 2.06048 33.2665 1.58426C33.9464 1.10804 34.7556 0.851363 35.5856 0.848692C37.84 0.848692 39.6839 2.69358 39.6839 4.94919C39.6839 7.23204 38.1621 8.22823 34.8847 9.75088C34.5623 9.90455 34.2446 10.068 33.9322 10.241L33.5965 10.4226C33.3334 10.5701 33.0703 10.7176 32.8344 10.8628C32.6303 10.9808 32.4557 11.0965 32.2788 11.2145C32.2233 11.2444 32.1702 11.2785 32.12 11.3167C32.0684 11.355 32.0138 11.3891 31.9567 11.4188C30.9633 12.0632 30.0561 12.8257 29.1761 13.6154C29.1488 13.6309 29.1243 13.6508 29.1035 13.6744C29.0808 13.6971 29.0581 13.7198 29.0309 13.7334C28.6794 14.0828 28.3278 14.4368 28.0058 14.7863L27.8742 14.9338C27.8311 14.9837 27.788 15.0359 27.7427 15.079C27.6045 15.2505 27.4639 15.4199 27.3208 15.5873C27.1008 15.846 26.8854 16.1025 26.6903 16.368C23.852 20.1306 22.3112 24.7134 22.2994 29.4274C22.2974 34.1436 23.8397 38.7307 26.6903 42.4868C27.0538 42.9897 27.4493 43.4688 27.8742 43.921C27.9196 43.9709 27.9627 44.0231 28.0058 44.0662C28.2485 44.3521 28.5047 44.604 28.7656 44.8604L29.0309 45.1214C29.0582 45.1369 29.0827 45.1568 29.1035 45.1804C29.1262 45.2031 29.1489 45.2235 29.1761 45.2394C30.0435 46.0433 30.9733 46.7771 31.9567 47.4337C32.0157 47.4632 32.0678 47.5018 32.1177 47.5358C32.1686 47.5748 32.2224 47.6097 32.2788 47.6402L32.5577 47.815L32.8344 47.9897L33.2155 48.2098C33.3402 48.2824 33.465 48.3573 33.5965 48.4299ZM74.2738 13.6744C80.2751 15.4308 84.8973 20.4367 85.952 26.7043C86.262 28.5849 86.262 30.5036 85.952 32.3842C84.8678 38.62 80.2751 43.6577 74.2738 45.4141L74.2852 45.4913C74.3691 46.0767 74.4507 46.6418 74.4507 47.259C74.451 48.7972 74.1484 50.3205 73.5601 51.7417C72.9718 53.1629 72.1094 54.4541 71.0222 55.5417C69.9349 56.6293 68.6441 57.4919 67.2236 58.0803C65.803 58.6686 64.2805 58.9711 62.7431 58.9705C61.1895 58.9683 59.652 58.6566 58.2201 58.0535C56.7883 57.4504 55.4908 56.568 54.4035 55.4577C54.117 56.2371 53.599 56.91 52.9191 57.3862C52.2392 57.8625 51.4299 58.1191 50.6 58.1218C49.5144 58.1188 48.474 57.6861 47.7061 56.9183C46.9383 56.1504 46.5052 55.1098 46.5017 54.0236C46.5017 51.7385 48.0235 50.7423 51.3008 49.2196C51.6252 49.0698 51.9359 48.9019 52.2534 48.7295L52.5891 48.5479C52.8522 48.4004 53.1153 48.2529 53.3511 48.1077C53.5553 47.9897 53.7299 47.874 53.9068 47.756C53.9623 47.7261 54.0154 47.692 54.0656 47.6538C54.1172 47.6154 54.1718 47.5813 54.2289 47.5517C55.2123 46.8942 56.1421 46.1597 57.0095 45.3551C57.0368 45.3397 57.0614 45.3197 57.0821 45.2961C57.1047 45.2734 57.1274 45.253 57.1546 45.2394C57.5062 44.8877 57.8577 44.5359 58.1798 44.1842L58.3113 44.039C58.3544 43.9868 58.3975 43.9346 58.4429 43.8915C58.579 43.719 58.7241 43.5511 58.8647 43.3832C59.0847 43.1245 59.3002 42.8703 59.4953 42.6025C62.2169 38.9718 63.8862 34.4333 63.8862 29.5431C63.8876 24.8276 62.3454 20.2415 59.4953 16.486C59.1318 15.9822 58.7364 15.5024 58.3113 15.0495C58.266 14.9996 58.2229 14.9474 58.1798 14.9043C57.8606 14.5313 57.5182 14.1789 57.1546 13.8491C57.1274 13.8335 57.1029 13.8136 57.0821 13.7901C57.0611 13.7674 57.0366 13.7482 57.0095 13.7334C56.1347 12.9375 55.2056 12.2035 54.2289 11.5368C54.1726 11.507 54.1187 11.4729 54.0678 11.4347C54.0157 11.3983 53.9658 11.362 53.9068 11.3325C53.8184 11.2735 53.7254 11.2145 53.6278 11.1555C53.5346 11.099 53.4423 11.0407 53.3511 10.9808L52.9701 10.7607C52.4306 10.4334 51.8742 10.1349 51.3031 9.86661C48.053 8.31673 46.5017 7.32054 46.5017 5.06492C46.5017 2.81158 48.3456 0.966692 50.6 0.966692C52.3555 0.966692 53.8184 2.07862 54.4035 3.63077C55.4894 2.51801 56.7869 1.63395 58.2195 1.03066C59.6522 0.42737 61.191 0.117056 62.7454 0.118C64.2824 0.118 65.8044 0.420944 67.2245 1.00953C68.6445 1.59812 69.9347 2.46081 71.0215 3.54836C72.1083 4.6359 72.9703 5.92698 73.5583 7.34787C74.1463 8.76877 74.4488 10.2916 74.4485 11.8295C74.4485 12.4422 74.3623 13.0594 74.2738 13.6744Z" fill="#034AD8"/>
<path d="M55.8664 29.4546C55.8673 27.7779 55.5378 26.1175 54.8969 24.5683C54.2559 23.0191 53.316 21.6115 52.1309 20.426C50.9459 19.2405 49.5388 18.3004 47.9903 17.6593C46.4418 17.0183 44.7822 16.689 43.1064 16.6902C41.4306 16.6893 39.771 17.0189 38.2226 17.6602C36.6743 18.3015 35.2674 19.2419 34.0825 20.4276C32.8977 21.6133 31.958 23.0211 31.3173 24.5704C30.6766 26.1197 30.3475 27.7802 30.3487 29.4569C30.3478 31.1334 30.6772 32.7936 31.318 34.3427C31.9588 35.8917 32.8985 37.2992 34.0833 38.4847C35.2682 39.6701 36.6749 40.6103 38.2232 41.2515C39.7714 41.8926 41.4308 42.2222 43.1064 42.2213C44.7822 42.2225 46.4418 41.8932 47.9903 41.2521C49.5388 40.6111 50.9459 39.671 52.1309 38.4855C53.316 37.3 54.2559 35.8924 54.8969 34.3432C55.5378 32.794 55.8673 31.1336 55.8664 29.4569V29.4546Z" fill="#034AD8"/>
</svg>
